assets/img/braze_icons/face-neutral.svg

<svg fill="none" height="24" viewBox="0 0 24 24" width="24" xmlns="http://www.w3.org/2000/svg"><path clip-rule="evenodd" d="m12 1c-6.07513 0-11 4.92487-11 11 0 6.0751 4.92487 11 11 11 6.0751 0 11-4.9249 11-11 0-6.07513-4.9249-11-11-11zm1.5 8c0-.82843.6716-1.5 1.5-1.5s1.5.67157 1.5 1.5-.6716 1.5-1.5 1.5-1.5-.67157-1.5-1.5zm-6.5 6c0-.5523.44772-1 1-1h8c.5523 0 1 .4477 1 1s-.4477 1-1 1h-8c-.55228 0-1-.4477-1-1zm.5-6c0-.82843.67157-1.5 1.5-1.5s1.5.67157 1.5 1.5-.67157 1.5-1.5 1.5-1.5-.67157-1.5-1.5z" fill="#801ed7" fill-rule="evenodd"/></svg>

<svg width="24" height="24" viewBox="0 0 24 24" fill="none" xmlns="http://www.w3.org/2000/svg">
<path fill-rule="evenodd" clip-rule="evenodd" d="M12 1C5.92487 1 1 5.92487 1 12C1 18.0751 5.92487 23 12 23C18.0751 23 23 18.0751 23 12C23 5.92487 18.0751 1 12 1ZM13.5 9C13.5 8.17157 14.1716 7.5 15 7.5C15.8284 7.5 16.5 8.17157 16.5 9C16.5 9.82843 15.8284 10.5 15 10.5C14.1716 10.5 13.5 9.82843 13.5 9ZM7 15C7 14.4477 7.44772 14 8 14H16C16.5523 14 17 14.4477 17 15C17 15.5523 16.5523 16 16 16H8C7.44772 16 7 15.5523 7 15ZM7.5 9C7.5 8.17157 8.17157 7.5 9 7.5C9.82843 7.5 10.5 8.17157 10.5 9C10.5 9.82843 9.82843 10.5 9 10.5C8.17157 10.5 7.5 9.82843 7.5 9Z" fill="#801ED7"/>
</svg>
